X:14
M:3/4
L:1/8
K:A Minor
|:B>A|G E3 ^G2|A4 ce|a3 e g2|1 e4 d>c|B2e2A2|G E3 ^G2|A4:|2 e4 d>B|
c2e2a2|Be3 ^G2|A4||

